img/cash.svg

<svg width="18" height="22" viewBox="0 0 18 22" fill="none" xmlns="http://www.w3.org/2000/svg">
<path d="M0 10H18V22H0V10ZM9 14C9.53043 14 10.0391 14.2107 10.4142 14.5858C10.7893 14.9609 11 15.4696 11 16C11 16.5304 10.7893 17.0391 10.4142 17.4142C10.0391 17.7893 9.53043 18 9 18C8.46957 18 7.96086 17.7893 7.58579 17.4142C7.21071 17.0391 7 16.5304 7 16C7 15.4696 7.21071 14.9609 7.58579 14.5858C7.96086 14.2107 8.46957 14 9 14ZM4 12C4 12.5304 3.78929 13.0391 3.41421 13.4142C3.03914 13.7893 2.53043 14 2 14V18C2.53043 18 3.03914 18.2107 3.41421 18.5858C3.78929 18.9609 4 19.4696 4 20H14C14 19.4696 14.2107 18.9609 14.5858 18.5858C14.9609 18.2107 15.4696 18 16 18V14C15.4696 14 14.9609 13.7893 14.5858 13.4142C14.2107 13.0391 14 12.5304 14 12H4ZM14 4V9H12.5V5.5H6.875L9.3 7.93L8.24 9L4 4.75L8.24 0.510002L9.3 1.57L6.875 4H14Z" fill="#467BF6"/>
</svg>

<svg width="18" height="22" fill="none" xmlns="http://www.w3.org/2000/svg"><path d="M0 10h18v12H0V10zm9 4a2 2 0 110 4 2 2 0 010-4zm-5-2a2 2 0 01-2 2v4a2 2 0 012 2h10a2 2 0 012-2v-4a2 2 0 01-2-2H4zm10-8v5h-1.5V5.5H6.875L9.3 7.93 8.24 9 4 4.75 8.24.51 9.3 1.57 6.875 4H14z" fill="#467BF6"/></svg>
